svgs/light/castle.svg

<svg xmlns="http://www.w3.org/2000/svg" viewBox="0 0 640 512"><!--! Font Awesome Pro 6.4.2 by @fontawesome - https://fontawesome.com License - https://fontawesome.com/license (Commercial License) Copyright 2023 Fonticons, Inc. --><path d="M128 40c0-22.1 17.9-40 40-40h24c22.1 0 40 17.9 40 40V64h32V40c0-22.1 17.9-40 40-40h32c22.1 0 40 17.9 40 40V64h32V40c0-22.1 17.9-40 40-40h24c22.1 0 40 17.9 40 40V224h32V200c0-22.1 17.9-40 40-40h16c22.1 0 40 17.9 40 40V432c0 44.2-35.8 80-80 80H80c-44.2 0-80-35.8-80-80V200c0-22.1 17.9-40 40-40H56c22.1 0 40 17.9 40 40v24h32V40zm40-8c-4.4 0-8 3.6-8 8V224H480V40c0-4.4-3.6-8-8-8H448c-4.4 0-8 3.6-8 8V80c0 8.8-7.2 16-16 16H360c-8.8 0-16-7.2-16-16V40c0-4.4-3.6-8-8-8H304c-4.4 0-8 3.6-8 8V80c0 8.8-7.2 16-16 16H216c-8.8 0-16-7.2-16-16V40c0-4.4-3.6-8-8-8H168zM496 256H144 80c-8.8 0-16-7.2-16-16V200c0-4.4-3.6-8-8-8H40c-4.4 0-8 3.6-8 8V432c0 26.5 21.5 48 48 48H224V400c0-53 43-96 96-96s96 43 96 96v80H560c26.5 0 48-21.5 48-48V200c0-4.4-3.6-8-8-8H584c-4.4 0-8 3.6-8 8v40c0 8.8-7.2 16-16 16H496zM384 400c0-35.3-28.7-64-64-64s-64 28.7-64 64v80H384V400z"/></svg>

<svg xmlns="http://www.w3.org/2000/svg" viewBox="0 0 640 512"><!--! Font Awesome Pro 6.1.1 by @fontawesome - https://fontawesome.com License - https://fontawesome.com/license (Commercial License) Copyright 2022 Fonticons, Inc. --><path d="M128 40C128 17.91 145.9 0 168 0H192C214.1 0 232 17.91 232 40V64H264V40C264 17.91 281.9 0 304 0H336C358.1 0 376 17.91 376 40V64H408V40C408 17.91 425.9 0 448 0H472C494.1 0 512 17.91 512 40V224H544V200C544 177.9 561.9 160 584 160H600C622.1 160 640 177.9 640 200V432C640 476.2 604.2 512 560 512H80C35.82 512 0 476.2 0 432V200C0 177.9 17.91 160 40 160H56C78.09 160 96 177.9 96 200V224H128V40zM168 32C163.6 32 160 35.58 160 40V224H480V40C480 35.58 476.4 32 472 32H448C443.6 32 440 35.58 440 40V80C440 88.84 432.8 96 424 96H360C351.2 96 344 88.84 344 80V40C344 35.58 340.4 32 336 32H304C299.6 32 296 35.58 296 40V80C296 88.84 288.8 96 280 96H216C207.2 96 200 88.84 200 80V40C200 35.58 196.4 32 192 32H168zM80 256C71.16 256 64 248.8 64 240V200C64 195.6 60.42 192 56 192H40C35.58 192 32 195.6 32 200V432C32 458.5 53.49 480 80 480H224V400C224 346.1 266.1 304 320 304C373 304 416 346.1 416 400V480H560C586.5 480 608 458.5 608 432V200C608 195.6 604.4 192 600 192H584C579.6 192 576 195.6 576 200V240C576 248.8 568.8 256 560 256H80zM320 336C284.7 336 256 364.7 256 400V480H384V400C384 364.7 355.3 336 320 336z"/></svg>
